image-check-outline.svg

<svg fill="currentColor" viewBox="0 0 24 24"><path d="M12.18 17c.36-1.5 1.25-2.84 2.5-3.75l-.72-.96-2.75 3.54-1.96-2.36L6.5 17zM5 5v14h7.03c.06.7.21 1.38.47 2H5c-.53 0-1.04-.21-1.41-.59C3.21 20.04 3 19.53 3 19V5c0-1.1.9-2 2-2h14c.53 0 1.04.21 1.41.59.38.37.59.88.59 1.41v7.5c-.62-.26-1.3-.41-2-.47V5zm12.75 17L15 19l1.16-1.16 1.59 1.59 3.59-3.59 1.16 1.41z"/></svg>

<svg  viewBox="0 0 24 24" fill="currentColor"><path  d="M12.18 17C12.54 15.5 13.43 14.16 14.68 13.25L13.96 12.29L11.21 15.83L9.25 13.47L6.5 17H12.18M5 5V19H12.03C12.09 19.7 12.24 20.38 12.5 21H5C4.47 21 3.96 20.79 3.59 20.41C3.21 20.04 3 19.53 3 19V5C3 3.9 3.9 3 5 3H19C19.53 3 20.04 3.21 20.41 3.59C20.79 3.96 21 4.47 21 5V12.5C20.38 12.24 19.7 12.09 19 12.03V5H5M17.75 22L15 19L16.16 17.84L17.75 19.43L21.34 15.84L22.5 17.25L17.75 22Z"/></svg>
